X: 7843
T: Coming Of Spring, The
R: jig
M: 6/8
K: Ddorian
|:ADD ~A3|AcA AGF|~E3 CEG|c2d cAG|
ADD ~A3|Ade fed|c2F EFG|1 AFD D2G:|2 AFD D2 E||
|:FDE F/F/FG|~A3 AdB|c2G AGF|E/F/GE CDE|
FDE F/F/FG|Ade fed|c2F EFG|1 AFD D2E:|2 AFD D2e||
~f3 ded|Adf agf|~e3 cBc|GEG cde|
f2d ded|Adf agf|edc e/f/ge|fdc d2e|
~f3 dAF|D2g agf|~e3 cBc|GEG cde|
f2d edc|AdB c2d|cAF EFG|AFD D2G||

